assets/icons/subscription.svg

<svg width="20" height="20" viewBox="0 0 20 20" fill="none" xmlns="http://www.w3.org/2000/svg">
<path d="M11.6619 7.91737C11.5625 7.63779 11.3791 7.39577 11.1368 7.22442C10.8945 7.05308 10.6053 6.96079 10.3085 6.96019H9.19756C8.88061 6.95853 8.5743 7.07445 8.33787 7.28555C8.10143 7.49664 7.95167 7.78791 7.91754 8.10302C7.88342 8.41813 7.96734 8.73471 8.1531 8.99152C8.33886 9.24834 8.61324 9.42716 8.9232 9.4934L10.6149 9.86249C10.9608 9.93822 11.2665 10.1391 11.4733 10.4265C11.6801 10.714 11.7734 11.0677 11.7352 11.4197C11.6971 11.7718 11.5302 12.0973 11.2666 12.3338C11.0031 12.5702 10.6614 12.7009 10.3073 12.7008H9.35135C8.72635 12.7008 8.19485 12.3022 7.998 11.7449M9.82994 6.96019V5.52441M9.82994 14.1366V12.7021M3.8457 17.9961V14.9203H6.92148" stroke="currentColor" stroke-width="1.4" stroke-linecap="round" stroke-linejoin="round"/>
<path d="M17.8595 8.52855C18.1861 10.2697 17.9253 12.07 17.1181 13.6469C16.3109 15.2239 15.0029 16.4881 13.3994 17.2413C11.796 17.9944 9.98786 18.1939 8.25881 17.8082C6.52977 17.4226 4.9777 16.4738 3.84622 15.1107M2.14101 11.4715C1.81439 9.7303 2.07516 7.92998 2.88238 6.35306C3.68961 4.77614 4.99759 3.51188 6.60104 2.75873C8.20448 2.00557 10.0126 1.80615 11.7417 2.19176C13.4707 2.57737 15.0228 3.52619 16.1543 4.88929" stroke="currentColor" stroke-width="1.4" stroke-linecap="round" stroke-linejoin="round"/>
<path d="M16.1549 2.00488V5.08066H13.0791" stroke="currentColor" stroke-width="1.4" stroke-linecap="round" stroke-linejoin="round"/>
</svg>

<svg xmlns="http://www.w3.org/2000/svg" width="20" height="20" fill="none" viewBox="0 0 20 20"><path stroke="currentColor" stroke-linecap="round" stroke-linejoin="round" stroke-width="1.4" d="M11.662 7.917a1.44 1.44 0 0 0-1.354-.957h-1.11a1.28 1.28 0 0 0-.275 2.533l1.692.37a1.436 1.436 0 0 1-.308 2.838h-.956a1.435 1.435 0 0 1-1.353-.956M9.83 6.96V5.524m0 8.613v-1.435m-5.984 5.294V14.92H6.92"/><path stroke="currentColor" stroke-linecap="round" stroke-linejoin="round" stroke-width="1.4" d="M17.86 8.529A7.997 7.997 0 0 1 3.846 15.11m-1.705-3.64a7.997 7.997 0 0 1 14.013-6.58"/><path stroke="currentColor" stroke-linecap="round" stroke-linejoin="round" stroke-width="1.4" d="M16.155 2.005V5.08h-3.076"/></svg>
